X:4
T:The Piper's Chair
T:Cathaoir an Ph\'iob\'aire
C:trad. arr. Quilty
R:jig
H:transcribed by Henrik Norbeck
Z:id:Quilty-4
M:6/8
K:G
DGG {A}GFD|c3 {G}cAc|ded cAG|FAG {A}FEF|
DGG {A}GFD|c2c {G}cAc|ded cAF|1 AGF ~G3:|2 AGF GBd||
|:~g3 {c'}agf|d2g {a}gfg|~G3 J=f3|A2B cBA|
GBd e/f/gf|d2e {a}fdc|Bdd cAF|1 AGF GBd:|2 AGF ~G3||
